!!!COM: Vivaldi, Antonio Lucio
!!!CDT: 1678/03/04-1741/08/28
!!!OPR: 12 Sonatas for Violin and Basso continuo
!!!OTL: Sonata in D major, op. @{OPS}, no. @{ONM} (@{SCT})
!!!OPS: 2
!!!ONM: 11
!!!OMV: 3. Gavotta
!!!SCT: RV 21
!!!SCA: Antonio Vivaldi: Thematisch-systematisches Verzeichnis seiner Werke (Ryom-Verzeichnis)
!!!OMD: Allegro
!!!key: D
**kern	**fb	**kern
*part2	*	*part1
*staff2	*	*staff1
*ICklav	*	*ICstr
*Icemba	*	*Ivioln
*I"Basso continuo	*	*I"Violino
*I'bc	*	*I'v
*>[A,A,B,B]	*>[A,A,B,B]	*>[A,A,B,B]
*>norep[A,B]	*>norep[A,B]	*>norep[A,B]
*>A	*>A	*>A
*clefF4	*	*clefG2
*k[f#c#]	*	*k[f#c#]
*D:	*	*D:
*M2/2	*	*M2/2
*met(c)	*	*met(c)
*MM138	*	*MM138
=1	=1	=1
8r	.	8dd\
8D\	.	4aa\
8C#y/L	6	.
8AA/J	.	8gg\
=2	=2	=2
4D\	.	8ff#y\
.	.	4aa\
4d\	.	.
.	.	8ff#y\
=3	=3	=3
4c#y\	6	8ee\
.	.	4aa\
4C#y/	.	.
.	.	8ee\
=4	=4	=4
4BB/	7	8dd\
.	.	4aa\
4B\	.	.
.	.	8dd\
=5	=5	=5
4A\	.	8cc#y\L
.	.	8a\J
8r	.	[4dd\
8F#y\	6	.
=6	=6	=6
4.E\	7	8dd\L]
.	6	8cc#y\J
.	.	[4gg\
8AA/	7	.
=7	=7	=7
4.D\	4	8gg\L]
.	3	8ff#y\J
.	.	[4bb\
8d\	6	.
=8	=8	=8
4.c#y\	7	8bb\L]
.	.	8ee\J
.	6	[4aa\
8C#y/	.	.
=9	=9	=9
4D\	5	8aa\L]
.	.	8ff#y\
4D#X\	6	8bb\
.	.	8aa\J
!!LO:LB:g=original
=10	=10	=10
8E/L	#	8gg#X\L
8Dn/	.	8ee\J
8C#y/	6	4aa\
8AA/J	.	.
=11	=11	=11
8D/L	.	8r
8AA/	.	8cc#y\
8E/	#	4b\T
8EE/J	.	.
=12	=12	=12
2AA/	.	2a/
=13:|!|:	=13:|!|:	=13:|!|:
*>B	*>B	*>B
8r	.	8a/
8A\	.	4ee\
8G#X\L	6	.
8E\J	.	8dd\
=14	=14	=14
4AA/	.	8cc#y\
.	.	4ee\
4A\	.	.
.	.	8cc#y\
=15	=15	=15
4G#X\	6	8b\
.	.	4ee\
4GG#X/	.	.
.	.	8b\
=16	=16	=16
4FF#y/	7	8a/
.	.	4ee\
4F#y\	.	.
.	.	8a/
=17	=17	=17
4E\	#	8g#X/L
.	.	8e/J
8r	.	[4dd\
8E\	7 #	.
=18	=18	=18
4.A\	4	8dd\L]
.	3	8cc#y\J
.	.	[4gg\
8AA/	7	.
=19	=19	=19
4.D\	4	8gg\L]
.	3	8ff#y\J
.	.	[4ee\
8C#y/	6	.
=20	=20	=20
4.BB/	4	8ee\L]
.	3	8dd\
.	.	8cc#y\
8AA#X/	6	8ff#y\J
!!LO:LB:g=original
=21	=21	=21
4BB/	.	8dd\L
.	.	8b\J
8r	.	[4bb\
8d\	6	.
=22	=22	=22
4E#X\	6 5	8bb\L]
.	.	8cc#y\J
8r	.	[4aa\
8F#y\	.	.
=23	=23	=23
4BB/	7	8aa\L]
.	.	8b\
8r	.	8gg#X\
8B\	.	8ff#y\J
=24	=24	=24
8c#y\L	#	8ee#X\L
8B\	.	8cc#y\J
8A\	6	[4ff#y\
8F#y\J	.	.
=25	=25	=25
8B\L	5 4	4ff#y\]
8G#X\	.	.
8c#y\	#	4ee#X\
8C#y\J	.	.
=26	=26	=26
4F#y\	.	8ff#y\L
.	.	8cc#y\J
8r	.	[4aa\
8c#y\	6	.
=27	=27	=27
4d#X\	5	8aa\L]
.	.	8b\
4D#X\	6	8bb\
.	.	8aa\J
=28	=28	=28
4E\	.	8gg\L
.	.	8ee\J
8r	.	[4gg\
8B\	6 4	.
=29	=29	=29
4c#y\	5	8gg\L]
.	.	8a\
4C#y/	6	8aa\
.	.	8gg\J
=30	=30	=30
4D\	.	8ff#y\L
.	.	8dd\J
8r	.	[4bb\
8d\	6	.
!!LO:LB:g=original
=31	=31	=31
4.c#y\	7	8bb\L]
.	6	8ee\
.	.	8aa\
8C#y/	.	8ee\J
=32	=32	=32
4.BB/	.	8dd\L
.	.	8b\J
.	.	[4gg\
8B\	6	.
=33	=33	=33
4.A\	7	8gg\L]
.	6	8cc#y\
.	.	8ff#y\
8AA/	.	8cc#y\J
=34	=34	=34
4.GG/	.	8b\L
.	.	8g\
.	.	8ee\
8GG#X/	5	8dd\J
=35	=35	=35
4AA/	.	8cc#y\L
.	.	8a\J
8r	.	[4dd\
8F#y\	6	.
=36	=36	=36
8G\L	5 4	4dd\]
8E\	.	.
8A\	3	4cc#y\
8AA\J	.	.
=37	=37	=37
8D\L	.	4.dd\
8D\	.	.
8E\	.	.
[8A\J	n	8ccn\
=38	=38	=38
8A\L]	4 2	8b\
8G\	6	4ee\
8F#y\	7	.
8G#X\J	5	8dd\
=39	=39	=39
8A\L	.	8cc#y\L
8Gn\	.	8a\J
8F#y\	6	4dd\
8D\J	.	.
=40	=40	=40
8G\L	.	8r
8D\	.	8f#y/
8A\	.	4e/T
8AA\J	.	.
=41	=41	=41
2D\;	.	2d/;
=:|!	=:|!	=:|!
*-	*-	*-
!!!SMS: RV 9 / Estienne Roger, Amsterdam [facs.]
!!!ENC: Fran Bennion; rev. 04/21 E. Correia
!!!END: 2004/12/23
!!!ONB: Converted from MuseData with musedata2hum on Sat May 11 12:07:53 2024
!!!YEM: (C) 2004, 2004 Center for Computer Assisted Research in the Humanities.
!!!system-decoration: [(s1,s2)]
!!!URL-info: https://wiki.ccarh.org/wiki/MuseData:_Antonio_Vivaldi#Op._2:_Sonate_a_violino_e_basso_per_il_cembalo
!!!URL-pdf: https://pdf.musedata.org/vivaldi-op02-no11.pdf#page=3 MuseData edition
!!!URL-pdf: http://conquest.imslp.info/files/imglnks/usimg/b/b7/IMSLP99075-PMLP183164-Vivaldi_-_Sonatas_Op2.pdf#page=41 Estienne Roger Amsterdam: Estienne Roger, No.2, n.d.[1711].
!!!URL-youtube: https://www.youtube.com/watch?v=SiijZmW9jKM&t=2828s L'Arte dell'Arco
!!!title: @{OTL}, mov. @{OMV}
!!!filter-chint: chint -mid
!!!EEV: 2024/05/11
!!!source-file: https://bitbucket.org/musedata/vivaldi/src/master/roger/op2/no11/stage2/03/01
!!!source-file: https://bitbucket.org/musedata/vivaldi/src/master/roger/op2/no11/stage2/03/02
